X:1
T:Die Auferstehung
T:Karl Heinrich Graun
T:Friedrich Gottlieb Klopstock
T:Die Auferstehung
T:Version für gem. Chor
T:CPDL - Creative Commons Attribution Non Commercial 3.0
T:CPDL - Creative Commons Attribution Non Commercial 3.0
C:Karl Heinrich Graun
Z:Friedrich Gottlieb Klopstock
Z:CPDL - Creative Commons Attribution Non Commercial 3.0
%%score [ ( 1 2 ) ( 3 4 ) ]
L:1/8
Q:1/4=80
M:3/4
K:Db
V:1 treble nm="Sopran\nAlt"
V:2 treble 
V:3 bass nm="Tenor\nBass"
V:4 bass 
V:1
!f!"^Feierlich froh" (A2 d2) B2 |!<(! (A2 c2)!<)! d2 | e>g f2 e2 |!>(! (d2 !breath!c2)!>)!!mf! d2 | %4
w: 1.~Auf- * er-|stehn, * ja|auf- er- stehn wirst|du, _ mein|
w: 2.~Wie- * der|auf- * zu-|blühn, werd ich ge-|sä't! _ Der|
w: 3.~Tag _ des|Danks, * der|Freu- den- trä- nen|Tag! _ du|
 (B2 A2) d2 |!>(! (B2 A2)!>)! G2 | (G2 F2) z2 |!mf! F2 d2 cB |!>(! (!>!A2 =G2)!>)! A2 | %9
w: Staub, * nach|kur- * zer|Ruh'! _|Un- sterb- lich *|Le- * ben|
w: Herr _ der|Ern- * te|geht _|und sam- melt *|Gar- * ben|
w: mei- * nes|Got- * tes|Tag! _|Wenn ich im *|Gra- * be|
"^cresc." A2 B2 c2 | (dc/d/ e2) d2 |!>(! d2 c2!>)! z!f! d |!<(! (e2 d2)!<)! c2 | (d>e f2) z!ff! d | %14
w: wird, der dich|schuf, _ _ _ dir|ge- ben. Hal-|le- * lu-|ja! _ _ Hal-|
w: uns ein, die|in _ _ _ ihm|star- ben! Hal-|le- * lu-|ja! _ _ Hal-|
w: ge- nug ge-|schlum- * * * mert|ha- be, er-|weckst _ du|mich, _ _ er-|
 (e2!>(! d2) c2!>)! | !fermata!d4 z2 |] %16
w: le- * lu-|ja!|
w: le- * lu-|ja!|
w: weckst _ du|mich!|
V:2
 F4 G2 | (A2 G2) F2 | A>A A2 G2 | (F2 E2) A2 | (G2 A2) F2 | (G2 F2) E2 | (E2 D2) x2 | D2 F2 F2 | %8
 E4 E2 | A2 =G2 A2 | B4 B2 | A2 A2 x A | (G2 F2) E2 | A4 x F | (G2 F2) E2 | F4 x2 |] %16
V:3
!f! D4 D2 |!<(! (D2 E2)!<)! A,2 | A,>E D2 B,2 |!>(! !breath!A,4!>)!!mf! D2 | D4 D2 | %5
w: 4.~Wie den|Träu- * men-|den wird's dann uns|sein! Mit|Je- su|
w: 5.~Ach, in's|Al- * ler-|hei- lig- ste führt|mich mein|Mitt- ler.|
!>(! D4!>)! C2 | (C2 D2) z2 |!mf! A,2 D2 ED |!>(! (C2 B,2)!>)! A,2 |"^cresc." E2 E2 E2 | E4 E2 | %11
w: geh'n wir|ein _|zu sei- nen *|Freu- * den!|Der mü- den|Pil- ger|
w: Dann, lebt'|ich _|im Hei- lig- *|tu- * me|zu sei- nes|Na- mens|
!>(! E2 E2!>)! z!f! D |!<(! (B,2 A,2)!<)! A,2 | (A,>C D2) z!ff! A, | (B,2!>(! A,2) A,2!>)! | %15
w: Lei- den sind|dann * nicht|mehr, _ _ sind|dann * nicht|
w: Ruh- me! Hal-|le- * lu-|ja! _ _ Hal-|le- * lu-|
 !fermata!A,4 z2 |] %16
w: mehr!|
w: ja!|
V:4
 D,4 G,2 | (F,2 E,2) D,2 | C,>C, D,2 G,2 | A,4 F,2 | (G,2 F,2) D,2 | (G,2 A,2) A,,2 | D,4 x2 | %7
 D,2 B,,2 C,D, | (E,2 D,2) C,2 | C,2 E,2 A,2 | =G,4 G,2 | A,2 A,2 x F, | (G,2 A,2) G,2 | %13
 F,>E, D,2 x D, | (G,2 A,2) A,,2 | D,4 x2 |] %16

